material/.icons/material/cloud-outline.svg

<svg xmlns="http://www.w3.org/2000/svg" viewBox="0 0 24 24"><path d="M19 18H6a4 4 0 01-4-4 4 4 0 014-4h.71C7.37 7.69 9.5 6 12 6a5.5 5.5 0 015.5 5.5v.5H19a3 3 0 013 3 3 3 0 01-3 3m.35-7.97A7.49 7.49 0 0012 4C9.11 4 6.6 5.64 5.35 8.03A6.004 6.004 0 000 14a6 6 0 006 6h13a5 5 0 005-5c0-2.64-2.05-4.78-4.65-4.97z"/></svg>

<?xml version="1.0" encoding="UTF-8"?><!DOCTYPE svg PUBLIC "-//W3C//DTD SVG 1.1//EN" "http://www.w3.org/Graphics/SVG/1.1/DTD/svg11.dtd"><svg xmlns="http://www.w3.org/2000/svg" xmlns:xlink="http://www.w3.org/1999/xlink" version="1.1" id="mdi-cloud-outline" width="24" height="24" viewBox="0 0 24 24"><path d="M19,18H6A4,4 0 0,1 2,14A4,4 0 0,1 6,10H6.71C7.37,7.69 9.5,6 12,6A5.5,5.5 0 0,1 17.5,11.5V12H19A3,3 0 0,1 22,15A3,3 0 0,1 19,18M19.35,10.03C18.67,6.59 15.64,4 12,4C9.11,4 6.6,5.64 5.35,8.03C2.34,8.36 0,10.9 0,14A6,6 0 0,0 6,20H19A5,5 0 0,0 24,15C24,12.36 21.95,10.22 19.35,10.03Z" /></svg>
